image/facebook.svg

<svg width="40" height="40" viewBox="0 0 40 40" fill="none" xmlns="http://www.w3.org/2000/svg">
<path d="M20 0.799805C9.39599 0.799805 0.799988 9.39581 0.799988 19.9998C0.799988 30.6038 9.39599 39.1998 20 39.1998C30.604 39.1998 39.2 30.6038 39.2 19.9998C39.2 9.39581 30.604 0.799805 20 0.799805ZM24.548 14.0678H21.662C21.32 14.0678 20.94 14.5178 20.94 15.1158V17.1998H24.55L24.004 20.1718H20.94V29.0938H17.534V20.1718H14.444V17.1998H17.534V15.4518C17.534 12.9438 19.274 10.9058 21.662 10.9058H24.548V14.0678Z" fill="black"/>
</svg>

<svg width="40" height="40" fill="none" xmlns="http://www.w3.org/2000/svg"><path d="M20 .8C9.396.8.8 9.396.8 20S9.396 39.2 20 39.2 39.2 30.604 39.2 20 30.604.8 20 .8Zm4.548 13.268h-2.886c-.342 0-.722.45-.722 1.048V17.2h3.61l-.546 2.972H20.94v8.922h-3.406v-8.922h-3.09V17.2h3.09v-1.748c0-2.508 1.74-4.546 4.128-4.546h2.886v3.162Z" fill="#000"/></svg>
